22x22/apps/com.jetbrains.GoLand.svg

<svg xmlns="http://www.w3.org/2000/svg" width="22" height="22" version="1">
 <path style="fill:#6655e4" d="M 11,1 2,1 C 1.446,1 1,1.446 1,2 l 0,9 10,0 z"/>
 <path style="fill:#21d789" d="m 11,1 9,0 c 0.554,0 1,0.446 1,1 l 0,9 -10,0 z"/>
 <path style="fill:#2086e7" d="M 11,21 2,21 C 1.446,21 1,20.554 1,20 l 0,-9 10,0 z"/>
 <path style="fill:#6655e4" d="m 11,21 9,0 c 0.554,0 1,-0.446 1,-1 l 0,-9 -10,0 z"/>
 <path style="opacity:0.2;fill:#f4f4f7" d="M 2,1 C 1.446,1 1,1.446 1,2 l 0,0.5 c 0,-0.554 0.446,-1 1,-1 l 18,0 c 0.554,0 1,0.446 1,1 L 21,2 C 21,1.446 20.554,1 20,1 L 2,1 Z"/>
 <path style="opacity:0.2" d="m 2,21.5 c -0.554,0 -1,-0.446 -1,-1 L 1,20 c 0,0.554 0.446,1 1,1 l 18,0 c 0.554,0 1,-0.446 1,-1 l 0,0.5 c 0,0.554 -0.446,1 -1,1 l -18,0 z"/>
 <rect style="fill:#17191e" width="14" height="14" x="4" y="4"/>
 <path style="opacity:0.2;fill:none;stroke:#000000;stroke-linecap:round" d="m 6.5071212,14.99995 3.9999998,0"/>
 <path style="fill:none;stroke:#f4f4f7;stroke-linecap:round" d="m 6.5071212,14.5 3.9999998,0"/>
 <path style="opacity:0.2;fill:none;stroke:#000000;stroke-width:0.99999994;stroke-linecap:round;stroke-linejoin:bevel" d="M 8.0074488,9 9.007448,9 M 8.5074488,9 c 0,0 0.245452,2 -1.000001,2 -0.999999,0 -0.999999,-1 -0.999999,-2.000001 0,-0.999999 0,-1.9999995 0.999999,-1.9999995 1.000001,0 0.996189,0.4999995 0.996189,0.4999995"/>
 <path style="fill:none;stroke:#f4f4f7;stroke-width:0.99999994;stroke-linecap:round;stroke-linejoin:bevel" d="m 8.0074488,8.5 0.9999992,0 m -0.4999992,0 c 0,0 0.245452,2 -1.000001,2 -0.999999,0 -0.999999,-1 -0.999999,-2.000001 0,-0.999999 0,-1.9999995 0.999999,-1.9999995 1.000001,0 0.996189,0.4999995 0.996189,0.4999995"/>
 <path style="opacity:0.2;fill-rule:evenodd" d="M 11.5,6.5 C 10.669,6.5 10,7.169 10,8 l 0,2 c 0,0.831 0.669,1.5 1.5,1.5 0.831,0 1.5,-0.669 1.5,-1.5 L 13,8 C 13,7.169 12.331,6.5 11.5,6.5 Z m 0,1 c 0.277,0 0.5,0 0.5,0.899414 l 0,1.201172 C 12,10.500001 11.777,10.5 11.5,10.5 11.223,10.5 11,10.500001 11,9.600586 L 11,8.399414 C 11,7.5 11.223,7.5 11.5,7.5 Z"/>
 <path style="fill:#f4f4f7;fill-rule:evenodd" d="M 11.5,6 C 10.669,6 10,6.669 10,7.5 l 0,2 c 0,0.831 0.669,1.5 1.5,1.5 0.831,0 1.5,-0.669 1.5,-1.5 l 0,-2 C 13,6.669 12.331,6 11.5,6 Z m 0,1 C 11.777,7 12,7 12,7.899414 l 0,1.201172 C 12,10.000001 11.777,10 11.5,10 11.223,10 11,10.000001 11,9.100586 L 11,7.899414 C 11,7 11.223,7 11.5,7 Z"/>
</svg>

<svg xmlns="http://www.w3.org/2000/svg" width="22" height="22" version="1"><path style="fill:#6655e4" d="M11 1H2c-.554 0-1 .446-1 1v9h10z"/><path style="fill:#21d789" d="M11 1h9c.554 0 1 .446 1 1v9H11z"/><path style="fill:#2086e7" d="M11 21H2c-.554 0-1-.446-1-1v-9h10z"/><path style="fill:#6655e4" d="M11 21h9c.554 0 1-.446 1-1v-9H11z"/><path style="opacity:.2;fill:#f4f4f7" d="M2 1c-.554 0-1 .446-1 1v.5c0-.554.446-1 1-1h18c.554 0 1 .446 1 1V2c0-.554-.446-1-1-1H2z"/><path style="opacity:.2" d="M2 21.5c-.554 0-1-.446-1-1V20c0 .554.446 1 1 1h18c.554 0 1-.446 1-1v.5c0 .554-.446 1-1 1H2z"/><path style="fill:#17191e" d="M4 4h14v14H4z"/><path style="opacity:.2;fill:none;stroke:#000;stroke-linecap:round" d="M6.507 15h4"/><path style="fill:none;stroke:#f4f4f7;stroke-linecap:round" d="M6.507 14.5h4"/><path style="opacity:.2;fill:none;stroke:#000;stroke-width:.99999994;stroke-linecap:round;stroke-linejoin:bevel" d="M8.007 9h1m-.5 0s.246 2-1 2c-1 0-1-1-1-2s0-2 1-2 .997.5.997.5"/><path style="fill:none;stroke:#f4f4f7;stroke-width:.99999994;stroke-linecap:round;stroke-linejoin:bevel" d="M8.007 8.5h1m-.5 0s.246 2-1 2c-1 0-1-1-1-2s0-2 1-2 .997.5.997.5"/><path style="opacity:.2;fill-rule:evenodd" d="M11.5 6.5c-.831 0-1.5.669-1.5 1.5v2c0 .831.669 1.5 1.5 1.5S13 10.831 13 10V8c0-.831-.669-1.5-1.5-1.5zm0 1c.277 0 .5 0 .5.9v1.2c0 .9-.223.9-.5.9s-.5 0-.5-.9V8.4c0-.9.223-.9.5-.9z"/><path style="fill:#f4f4f7;fill-rule:evenodd" d="M11.5 6c-.831 0-1.5.669-1.5 1.5v2c0 .831.669 1.5 1.5 1.5s1.5-.669 1.5-1.5v-2c0-.831-.669-1.5-1.5-1.5zm0 1c.277 0 .5 0 .5.9v1.2c0 .9-.223.9-.5.9s-.5 0-.5-.9V7.9c0-.9.223-.9.5-.9z"/></svg>
